X:1
T:The Well-Tempered Clavier Part II Fuga VII
T:BWV 876
T:J. S. Bach
%%score { ( 1 3 ) | ( 2 4 ) }
L:1/8
Q:1/4=184
M:2/2
K:Eb
V:1 treble nm="Harp"
V:3 treble 
V:2 bass 
V:4 bass 
V:1
"^Presto" z8 | z8 | z8 | z8 | z8 | z8 | B,8 | E4 z2 E2 | D2 G4 F2 | E2 ED E2 G2 | C2 F4 E2 | %11
 D2 DC D2 F2 | B,2 B,A, B,2 D2 | E8 | B4 z2 A2 | G2 c4 B2 | A2 AG A2 c2 | F2 B4 A2 | G2 GF G2 B2 | %19
 E2 FE F2 A2 | B8 | e4 z2 e2 | d2 g4 f2 | e2 ed e2 g2 | c2 f4 e2 | d2 dc d2 f2 | B2 B=A B2 d2 | %27
 G2 =A2 B4- | B4 =A4 | B2 de f2 d2 | B2 ef g2 e2 | f2 ed c2 d2 | e2 z2 z4 | z8 | z8 | %35
[I:staff +1] B,2 B,A, B,2 D2 |[I:staff -1] B8 | e8 | b4 z2 a2 | g2 c'4 b2 | a2 ag a2 c'2 | %41
 f2 b4 a2 | g2 gf g2 b2 | e2 ed e2 g2 | c2 de f4- | f4 edef | d2 g4 f2 | =e2 c2 f4- | f4 e4- | %49
 e4 dcde | c2 f4 e2 | d2 B2 e4- | e4 _d4- | d2 c2 B4 | A4 z4 | z8 | z8 | z8 | B8 | e4 z2 e2 | %60
 d2 g4 f2 | e2 ed e2 g2 | c2 f4 e2 | d2 dc d2 f2 | B2 e2 _d4- | d2 c2 B4- | B2 AG A4- | A4 _G4 | %68
 F8 | !fermata!E8 |] %70
V:2
 E,8 | B,4 z2 A,2 | G,2 C4 B,2 | A,2 A,G, A,2 C2 | F,2 B,4 A,2 | G,2 G,F, G,2 B,2 | %6
 E,2 E,D, E,2 G,2 | C,2 D,E, F,4 | B,,4 B,4- | B,4 =A,2 G,2 | =A,3 B,/A,/ G,2 A,2 | %11
 B,2 B,,2 B,2 A,2 | G,2 G,,2 G,2 F,2 | E,2 F,G, A,4- | A,2 G,F, G,2 B,2 | E,2 A,G, A,2 C2 | %16
 F,4- F,2 G,A, | B,8 |[I:staff -1] E2[I:staff +1] B,A, B,4- | B,2 A,G, A,4- | A,2 G,2 F,2 B,2 | %21
 G,4 F,4- | F,2 D,2 G,4- | G,2 CB, C4- | C3 D/C/ B,2 C2 | D4 z2 C2 | D4 z2 A,2 | B,2 C2 _D4 | %28
 C2 B,2 C4 | B,4 B,4 | E4 z2 E2 | D2 G4 F2 | B,2[I:staff -1] ED E2 G2 | %33
[I:staff +1] A,2 A,G, A,2 C2 | F,2 B,4 A,2 | G,2 G,F, G,2 B,2 | G,4[I:staff -1] G4- | %37
 G2 GF G2 =A2 | B2[I:staff +1] DC D2 F2 | G2 GF G4- | G2 C2 F4- | F2 FE F4- | F2 B,2 E2 z2 | %43
 C2 C,2 CB,A,G, | A,2 A,,2 A,2 G,F, | G,8- | G,F,G,A, G,F,=E,D, | C,8- | C,B,,C,_D, C,B,,=A,,G,, | %49
 F,,8- | F,,E,F,G, F,E,D,C, | B,,8- | B,,A,B,C B,4 | E4 z2 _D2 | C2[I:staff -1] F4 E2 | %55
 _D2 DC D2 F2 | B,2 E4 _D2 | C2 CB, C2[I:staff +1] E2 | A,2 A,G, A,2 B,A, | G,2 B,A, B,2 C2 | %60
 D2 DC D2[I:staff -1] F2 | B2 G2[I:staff +1] E4- | E2 CB, C2 E2 | F2 D2 G2 D2 | %64
 E2 z2 z2[I:staff -1] F2 | E4[I:staff +1] z2[I:staff -1] D2 | C6[I:staff +1] A,2 | F,4 z2 C2 | %68
 F,2 F,E, F,2 B,2 |[I:staff -1] G,8 |] %70
V:3
 x8 | x8 | x8 | x8 | x8 | x8 | x8 | x8 | x8 | x8 | x8 | x8 | x8 | G,2 A,B, C2 B,C | D2 F2 B,2 D2 | %15
 E8- | E4 D2 C2 | D3 E/D/ C2 D2 | x8 | x8 | D2 E4 D2 | C2 G2 c4- | c2 B=A B4- | B4 =A2 G2 | %24
 =A3 B/A/ G2 A2 | B4 z2 F2 | G4 z2 D2 | E2 F2 G4 | F6 E2 | D2 FG A4- | A2 GA B2 G2 | F2 B2 A2 B2 | %32
 E2 z2 z4 | C2 F4 E2 | D2 DC D2 F2 | x8 | x8 | e4 z2 e2 | d2 g4 f2 | e2 ed e2 g2 | c2 f4 e2 | %41
 d2 dc d2 f2 | B2 BA B2 d2 | G2 =A=B c2 B2 | c4- c=Bcd | =B2 G2 c4- | c4 B4- | B4 AGAB | G2 c4 B2 | %49
 =A2 F2 B4- | B4 A4- | A4 GFGA | F2 B4 A2 | B2 A4 G2- | G2 FG A4- | A2 F2 B2 A2 | G2 GF G2 B2 | %57
 E2 A4 G2 | F2 FE F2 GF | E2 GF G2 =AF | F2 B=A B2 d2 | e2 c2 G4 | A2 A4 G2 | A2 F2 B4- | %64
 B2 z2 z2 A2 | G4 z2 F2 | E6 DC | D2 B,2 E4- | E4 D4 | B,8 |] %70
V:4
 x8 | x8 | x8 | x8 | x8 | x8 | x8 | x8 | x8 | x8 | x8 | x8 | x8 | x8 | x8 | x8 | x8 | x8 | %18
 E,6 D,2 | C,4 z2 F,2 | B,,8- | B,,4 =A,,4 | B,,4 z2 G,,2 | B,,4 z2 F,2 | F,4 z2 F,2 | %25
 B,2 F,2 B,2 =A,2 | G,2 D,2 G,2 F,2 | E,6 =E,2 | F,8 | B,,4 z4 | z4 E,4 | B,4 z2 A,2 | G,2 C4 B,2 | %33
 x8 | x8 | x8 | E,2 E,D, E,2 G,2 | C,4 C4 | B,2 B,A, B,2 D2 | E4 z2 =E2 | F2 F,=E, F,2 =A,2 | %41
 B,4 z2 D2 | E2 E,2 EDCB, | x8 | x8 | x8 | x8 | x8 | x8 | x8 | x8 | x8 | z4 B,A,G,F, | %53
 G,2 A,2 D,2 =E,2 | F,4- F,E,_D,C, | B,,4- B,,B,,C,_D, | E,4- E,E,,F,,G,, | A,,B,,C,_D, E,4- | %58
 E,4 D,4 | E,8 | B,4 z2 A,2 | G,2 C4 B,2 | A,2 A,2 A,2 C2 | F,2 B,4 A,2 | G,2 G,F, G,2 B,2 | %65
 E,2 E,D, E,2 G,2 | C,2 D,E, F,4 | B,,4 =A,,4 | B,,8 | !fermata!E,,8 |] %70

